X:1
T:newdsscheme1.output
L:1/16
K:C
g_B_B_B cccc  |  cccc cccc  |  ccdc dcdc  |  dccc cccc  |  cccc cccc  |  cccc cccc  |  cdcc ccdd  |  cdcc cccc  |  ccdc dcdc  |  dccc dcdc  |  cccc cccd  |  cddc dccc  |  cccc cccc  |  cccc cccc  |  cdcc ccdd  |  cdcc cccc  |  cddd dddd  |  dddd dddd  |  dddd dddd  |  dddd dddd  |  dddd dddd  |  dddd dddd  |  dddd dddd  |  dddd dddd  |  dddd dddd  |  dddd dddd  |  dddd dddd  |  dddd dddd  |  dddd dddd  |  dddd dddd  |  dddd dddd  |  dddd dddd  |  dddd dddd  |  dddd dddd  |  dddd dddd  |  dddd dddd  |  dddd dddd  |  dddd dddd  |  dddd dddd  |  dddd dddd  |  dddd dddd  |  dddd dddd  |  dddd dddd  |  dddd dddd  |  dddd dddd  |  dddd dddd  |  dddd dddd  |  dddd dddd  |  dddd dddd  |  dddd dddd  |  dddd dddd  |  dddd dddd  |  dddd dddd  |  dddd dddd  |  dddd dddd  |  dddd dddd  |  dddd dddd  |  dddd dddd  |  dddd dddd  |  dddd dddd  |  dddd dddd  |  dddd dddd  |  dddd dddd  |  dddd dddd  |  dddd dddd  |  dddd dddd  |  dddd dddd  |  dddd dddd  |  dddd dddd  |  dddd dddd  |  dddd dddd  |  dddd dddd  |  dddd dddd  |  dddd dddd  |  dddd dddd  |  dddd dddd  |  dddd dddd  |  dddd dddd  |  dddd dddd  |  dddd dddd  |  dddd dddd  |  dddd dddd  |  dddd dddd  |  dddd dddd  |  dddd dddd  |  dddd dddd  |  dddd dddd  |  dddd dddd  |  dddd dddd  |  dddd dddd  |  dddd dddd  |  dddd dddd  |  dddd dddd  |  dddd dddd  |  dddd dddd  |  dddd dddd  |  dddd dddd  |  dddd dddd  |  dddd dddd  |  dddd dddd  |  dddd dddd  |  dddd dddd  |  dddd dddd  |  dddd dddd  |  dddd dddd  |  dddd dddd  |  dddd dddd  |  dddd dddd  |  dddd dddd  |  dddd dddd  |  dddd dddd  |  dddd dddd  |  dddd dddd  |  dddd dddd  |  dddd dddd  |  dddd dddd  |  dddd dddd  |  dddd dddd  |  dddd dddd  |  dddd dddd  |  dddd dddd  |  dddd dddd  |  dddd dddd  |  dddd dddd  |  dddd dddd  |    ]
